images/advantages/advantage-3-icon.svg

<svg width="95" height="91" viewBox="0 0 95 91" fill="none" xmlns="http://www.w3.org/2000/svg">
<path d="M47.5252 8.0812C49.3452 8.07532 51.126 8.59881 52.6422 9.58537C54.1584 10.5719 55.3417 11.9772 56.0423 13.6232C56.743 15.2692 56.9294 17.082 56.578 18.8319C56.2266 20.5818 55.3532 22.1902 54.0684 23.4533C52.7836 24.7165 51.1452 25.5777 49.3606 25.9278C47.5761 26.2779 45.7256 26.1012 44.0436 25.42C42.3616 24.7389 40.9236 23.584 39.9119 22.1015C38.9001 20.619 38.3601 18.8756 38.36 17.0922C38.36 14.7074 39.3247 12.42 41.0426 10.7309C42.7606 9.04188 45.0917 8.08905 47.5252 8.0812Z" fill="#826550"/>
<path d="M68.0965 26.0933H26.954C26.2008 26.0959 25.4794 26.3909 24.9478 26.9137C24.4161 27.4366 24.1176 28.1445 24.1176 28.8826V33.304C24.1203 34.0413 24.4196 34.7478 24.9507 35.27C25.4818 35.7923 26.2017 36.0882 26.954 36.0934H27.7918V80.99H26.954C26.2008 80.9926 25.4794 81.2877 24.9478 81.8105C24.4161 82.3333 24.1176 83.0413 24.1176 83.7793V88.2008C24.1176 88.9398 24.4158 89.6488 24.9472 90.1732C25.4785 90.6976 26.1999 90.9948 26.954 91H68.0965C68.8506 90.9974 69.5731 90.7027 70.1063 90.1801C70.6395 89.6576 70.9403 88.9496 70.9429 88.2107V83.7793C70.9403 83.0404 70.6395 82.3324 70.1063 81.8099C69.5731 81.2873 68.8506 80.9926 68.0965 80.99H67.2587V36.0934H68.0965C68.8506 36.0908 69.5731 35.796 70.1063 35.2735C70.6395 34.751 70.9403 34.043 70.9429 33.304V28.8826C70.9403 28.1436 70.6395 27.4357 70.1063 26.9131C69.5731 26.3906 68.8506 26.0959 68.0965 26.0933ZM33.9793 36.0934H47.3032L33.9793 49.1499V36.0934ZM61.0712 80.99H47.4445L61.0712 67.6664V80.99ZM61.0712 52.5921L33.9793 79.1304V64.2242L61.0712 37.676V52.5921Z" fill="#826550"/>
<path d="M47.5252 1.24221e-07C37.5443 -0.000714055 27.8166 3.07809 19.7217 8.79973C11.6268 14.5214 5.57584 22.5954 2.42697 31.8765C-0.721891 41.1576 -0.808757 51.1747 2.1787 60.5069C5.16615 69.8392 11.0763 78.0127 19.0707 83.8684V83.7793C19.0761 82.3468 19.4847 80.9435 20.2517 79.7239C13.238 74.1959 8.14762 66.6713 5.68289 58.1881C3.21816 49.705 3.50052 40.6814 6.49101 32.3622C9.48149 24.0429 15.0327 16.8381 22.3789 11.7415C29.7251 6.645 38.5042 3.90793 47.5051 3.90793C56.5059 3.90793 65.285 6.645 72.6312 11.7415C79.9774 16.8381 85.5286 24.0429 88.5191 32.3622C91.5096 40.6814 91.7919 49.705 89.3272 58.1881C86.8625 66.6713 81.7721 74.1959 74.7584 79.7239C75.5328 80.9408 75.9453 82.3453 75.9495 83.7793V83.8684C83.9356 78.0111 89.8389 69.8401 92.8231 60.5127C95.8074 51.1852 95.7214 41.1742 92.5773 31.8973C89.4332 22.6204 83.3904 14.548 75.3048 8.82329C67.2192 3.09857 57.5005 0.0117458 47.5252 1.24221e-07Z" fill="#826550"/>
</svg>

<svg width="95" height="91" fill="none" xmlns="http://www.w3.org/2000/svg"><path d="M47.53 8.08c1.82 0 3.6.52 5.11 1.5 1.52 1 2.7 2.4 3.4 4.04a8.84 8.84 0 0 1-1.97 9.83 9.37 9.37 0 0 1-10.02 1.97 9.16 9.16 0 0 1-4.14-3.32 8.88 8.88 0 0 1 1.13-11.37 9.3 9.3 0 0 1 6.49-2.65Z" fill="#826550"/><path d="M68.1 26.1H26.95c-.75 0-1.47.3-2 .81a2.76 2.76 0 0 0-.83 1.97v4.42c0 .74.3 1.45.83 1.97s1.25.82 2 .82h.84V81h-.84c-.75 0-1.47.3-2 .82a2.76 2.76 0 0 0-.83 1.97v4.42c0 .74.3 1.45.83 1.97.53.53 1.25.82 2 .83H68.1c.75 0 1.47-.3 2-.82.54-.52.84-1.23.84-1.97v-4.43c0-.74-.3-1.45-.83-1.97a2.89 2.89 0 0 0-2.01-.82h-.84v-44.9h.84c.75 0 1.47-.3 2-.82.54-.52.84-1.23.84-1.97v-4.42c0-.74-.3-1.44-.83-1.97a2.89 2.89 0 0 0-2.01-.82Zm-34.12 10H47.3L33.98 49.14V36.09Zm27.1 44.89H47.43l13.63-13.32v13.32Zm0-28.4-27.1 26.54v-14.9l27.1-26.55v14.91Z" fill="#826550"/><path d="M47.53 0c-9.99 0-19.71 3.08-27.8 8.8a46.64 46.64 0 0 0-17.3 23.08 45.68 45.68 0 0 0-.25 28.63 46.6 46.6 0 0 0 16.9 23.36v-.1c0-1.42.4-2.83 1.17-4.05A42.57 42.57 0 0 1 5.68 58.2a41.8 41.8 0 0 1 .81-25.83 42.71 42.71 0 0 1 15.89-20.62A44.1 44.1 0 0 1 47.5 3.91c9 0 17.77 2.73 25.12 7.83a42.71 42.71 0 0 1 15.89 20.62 41.8 41.8 0 0 1 .8 25.83 42.57 42.57 0 0 1-14.56 21.53 7.6 7.6 0 0 1 1.19 4.06v.09A46.6 46.6 0 0 0 92.82 60.5a45.69 45.69 0 0 0-.24-28.61A46.65 46.65 0 0 0 75.3 8.82 48.2 48.2 0 0 0 47.53 0Z" fill="#826550"/></svg>
